lib/icons/fullscreen_dark.svg

<svg version="1.1" viewBox="0 0 24 24" xmlns="http://www.w3.org/2000/svg">
    <path d="M0 0h24v24H0z" fill="none"/>
    <path d="m6 14h-3v7h6.5v-3h-3.5zm-3-4.5h3v-3.5h3.5v-3h-6.5zm15 8.5h-4v3h7v-7h-3zm-4-15v3h4v4h3v-7z" fill="#f9f9f9" stroke-width="1.2857"/>
</svg>

<?xml version="1.0" encoding="UTF-8" standalone="no"?>
<svg
   xmlns:dc="http://purl.org/dc/elements/1.1/"
   xmlns:cc="http://creativecommons.org/ns#"
   xmlns:rdf="http://www.w3.org/1999/02/22-rdf-syntax-ns#"
   xmlns:svg="http://www.w3.org/2000/svg"
   xmlns="http://www.w3.org/2000/svg"
   xmlns:sodipodi="http://sodipodi.sourceforge.net/DTD/sodipodi-0.dtd"
   xmlns:inkscape="http://www.inkscape.org/namespaces/inkscape"
   version="1.1"
   viewBox="0 0 24 24"
   id="svg6"
   sodipodi:docname="fullscreen_dark.svg"
   inkscape:version="0.92.4 (f8dce91, 2019-08-02)">
  <metadata
     id="metadata12">
    <rdf:RDF>
      <cc:Work
         rdf:about="">
        <dc:format>image/svg+xml</dc:format>
        <dc:type
           rdf:resource="http://purl.org/dc/dcmitype/StillImage" />
        <dc:title></dc:title>
      </cc:Work>
    </rdf:RDF>
  </metadata>
  <defs
     id="defs10" />
  <sodipodi:namedview
     pagecolor="#ffffff"
     bordercolor="#666666"
     borderopacity="1"
     objecttolerance="10"
     gridtolerance="10"
     guidetolerance="10"
     inkscape:pageopacity="0"
     inkscape:pageshadow="2"
     inkscape:window-width="1366"
     inkscape:window-height="744"
     id="namedview8"
     showgrid="true"
     inkscape:pagecheckerboard="true"
     inkscape:zoom="22.627417"
     inkscape:cx="9.4390081"
     inkscape:cy="13.367597"
     inkscape:window-x="0"
     inkscape:window-y="24"
     inkscape:window-maximized="1"
     inkscape:current-layer="svg6">
    <inkscape:grid
       type="xygrid"
       id="grid822"
       spacingx="0.5"
       spacingy="0.5"
       empspacing="1"
       empcolor="#3f3fff"
       empopacity="0.55294118"
       color="#3f9aff"
       opacity="0.1254902" />
  </sodipodi:namedview>
  <path
     d="M0 0h24v24H0z"
     fill="none"
     id="path2" />
  <path
     d="M 6,14 H 3 v 7 H 9.5 V 18 H 6 Z M 3,9.5 H 6 V 6 H 9.5 V 3 H 3 Z M 18,18 h -4 v 3 h 7 V 14 H 18 Z M 14,3 v 3 h 4 v 4 h 3 V 3 Z"
     id="path4"
     inkscape:connector-curvature="0"
     style="fill:#f9f9f9;stroke-width:1.28571427"
     sodipodi:nodetypes="cccccccccccccccccccccccccccc" />
</svg>
